X:1
T:Love's Old Sweet Song
T:Love's Old Sweet Song
T:G. Clifton Bingham/J. L. Molloy
C:G. Clifton Bingham/J. L. Molloy
%%score [ 1 2 3 4 ]
L:1/8
Q:1/4=70
M:4/4
K:F
V:1 treble nm="Sopran"
V:2 treble nm="Alt"
V:3 treble-8 nm="Tenor"
V:4 bass nm="Bass"
V:1
!p!"^Quietly" F2 F F F2 F2 | F3/2 E/ E D E4 |!<(! G2 G G G3!<)! G |!>(! G3/2 F/ F G A4!>)! | %4
w: 1.Once in the ear, dead|days be- yond re- call,|When on the world the|mists be- gan to fall,|
w: 2.E- ven to- day we|hear Love's song of yore,|Deep in our hearts it|dwells for- ev- er more,|
 A2 G!<(! A B3 G | B B!<)!!>(! A B c4!>)! |!p! c2 E E F A =B A | G2 =B,2 C4 | B2 A3/2 G/ D3 E | %9
w: Out of the dreams that|rose in hap- py throng,|Low to our hearts Love sang an|old sweet song;|And in the dusk where|
w: Foot- steps may fal- ter,|wear- y grow the way,|Still we can hear it at the|close of day;|So till the end when|
 F E!<(! F G!<)! A4 |"_ritard." A2 G F E c D F | E4 D4 | !fermata!C8 || %13
w: fell the fire- light gleam,|Soft- ly it wove it- self in-|to our|dream.|
w: life's dim shad- ows fall,|Love will be found the sweet- est|song of|all.|
[M:3/4][Q:1/4=80]"^Molto moderato" C3/2 D/ F2 D2 | E2 c4 | C3/2 D/ E2 B2 | A6 | %17
w: Just a song at|twi- light,|when the lights are|low,|
w: ||||
 A3/2!<(! B/ A2 G2!<)! |!mf! F2 A4 |"^dim." G3/2 A/ G2 D2 | G6 | C3/2 D/ F2 D2 | E2 c4 | %23
w: And the flick- 'ring|sha- dows|soft- ly come and|go;|Tho' the heart be|wea- ry,|
w: ||||||
!<(! C3/2 D/ E2 B2!<)! | A6 |!f! A3/2 G/ F2 c2 |!>(! d4!>)! B2 |!<(! A2 G2!<)! C2 |"_rit." c4 F2 | %29
w: sad the day and|long,|Still to us at|twi- light|comes love's old|song, Comes|
w: ||||||
 (AG) F2!<(! (E/!fermata!GF/)!<)! |!p! F6 |] %31
w: love's _ old, sweet _ _|song.|
w: ||
V:2
!p! C2 C C C2 C2 | C3/2 C/ C C C4 |!<(! E2 D D C3!<)! C |!>(! C3/2 C/ C F F4!>)! | %4
w: 1.Once in the ear, dead|days be- yond re- call,|When on the world the|mists be- gan to fall,|
w: 2.E- ven to- day we|hear Love's song of yore,|Deep in our hearts it|dwells for- ev- er more,|
 F2 E!<(! F E3 E | E E!<)!!>(! F F F4!>)! |!p! D2 D C C F F F | F2 =B,2 C4 | D2 D3/2 D/ D3 D | %9
w: Out of the dreams that|rose in hap- py throng,|Low to our hearts Love sang an|old sweet song;|And in the dusk where|
w: Foot- steps may fal- ter,|wear- y grow the way,|Still we can hear it at the|close of day;|So till the end when|
 D ^C!<(! D E!<)! F4 | F2 E D C C C C | C4 =B,4 | !fermata!C8 ||[M:3/4] C3/2 D/ C2 C2 | C2 E4 | %15
w: fell the fire- light gleam,|Soft- ly it wove it- self in-|to our|dream.|Just a song at|twi- light,|
w: life's dim shad- ows fall,|Love will be found the sweet- est|song of|all.|||
 C3/2 D/ C2 E2 | F6 | G3/2!<(! G/ G2 E2!<)! |!mf! F2 F4 |"^dim." D3/2 D/ D2 D2 | (E2 D2 C2) | %21
w: when the lights are|low,|And the flick- 'ring|sha- dows|soft- ly come and|go; _ _|
w: ||||||
 C3/2 D/ C2 C2 | C2 E4 |!<(! C3/2 D/ C2 E2!<)! | F6 |!f! _E3/2 E/ E2 E2 |!>(! D4!>)! F2 | %27
w: Tho' the heart be|wea- ry,|sad the day and|long,|Still to us at|twi- light|
w: ||||||
!<(! F2 E2!<)! C2 | F4 F2 | D2 C2!<(! !fermata!C2!<)! |!p! C6 |] %31
w: comes love's old|song, Comes|love's old, sweet|song.|
w: ||||
V:3
!p! A2 A A A2 A2 | B3/2 B/ B B B4 |!<(! B2 B B B3!<)! B |!>(! B3/2 A/ A B c4!>)! | %4
w: 1.Once in the ear, dead|days be- yond re- call,|When on the world the|mists be- gan to fall,|
w: 2.E- ven to- day we|hear Love's song of yore,|Deep in our hearts it|dwells for- ev- er more,|
 c2 c!<(! c c3 c | c c!<)!!>(! c c c4!>)! |!p! A2 A A A A d c | =B2 (GF) G4 | G2 c3/2 B/ B3 B | %9
w: Out of the dreams that|rose in hap- py throng,|Low to our hearts Love sang an|old sweet _ song;|And in the dusk where|
w: Foot- steps may fal- ter,|wear- y grow the way,|Still we can hear it at the|close of _ day;|So till the end when|
 A A!<(! A A!<)! A4 | =B2 B B c B A A | G4 F4 | !fermata!E8 ||[M:3/4] A3/2 A/ A2 A2 | B2 B4 | %15
w: fell the fire- light gleam,|Soft- ly it wove it- self in-|to our|dream.|Just a song at|twi- light,|
w: life's dim shad- ows fall,|Love will be found the sweet- est|song of|all.|||
 B3/2 B/ B2 d2 | c6 | ^c3/2!<(! c/ c2 c2!<)! |!mf! d2 (d2 =c2) |"^dim." =B3/2 B/ B2 B2 | _B6 | %21
w: when the lights are|low,|And the flick- 'ring|sha- dows _|soft- ly come and|go;|
w: ||||||
 A3/2 A/ A2 A2 | B2 B4 |!<(! B3/2 B/ B2 d2!<)! | c6 |!f! c3/2 c/ c2 A2 |!>(! B4!>)! d2 | %27
w: Tho' the heart be|wea- ry,|sad the day and|long,|Still to us at|twi- light|
w: ||||||
!<(! c2 B2!<)! G2 | A4 c2 | (cB) A2!<(! (G/!fermata!BA/)!<)! |!p! A6 |] %31
w: comes love's old|song, Comes|love's _ old, sweet _ _|song.|
w: ||||
V:4
!p! F,2 F, F, F,2 F,2 | G,3/2 G,/ G, G, G,4 |!<(! C,2 D, D, E,3!<)! C, | %3
w: 1.Once in the ear, dead|days be- yond re- call,|When on the world the|
w: 2.E- ven to- day we|hear Love's song of yore,|Deep in our hearts it|
!>(! F,3/2 F,/ F, F, F,4!>)! | F,2 F,!<(! F, G,3 B, | G, G,!<)!!>(! F, G, A,4!>)! | %6
w: mists be- gan to fall,|Out of the dreams that|rose in hap- py throng,|
w: dwells for- ev- er more,|Foot- steps may fal- ter,|wear- y grow the way,|
!p! F,2 F, E, D, D, D, D, | (G,D,) G,,2 E,4 | G,,2 G,3/2 G,/ G,3 G, | D, D,!<(! D, D,!<)! D,4 | %10
w: Low to our hearts Love sang an|old _ sweet song;|And in the dusk where|fell the fire- light gleam,|
w: Still we can hear it at the|close _ of day;|So till the end when|life's dim shad- ows fall,|
 G,2 G, G, A, G, F, D, | G,4 G,,4 | !fermata!C,8 ||[M:3/4] F,3/2 F,/ F,2 F,2 | G,2 (G,2 C,2) | %15
w: Soft- ly it wove it- self in-|to our|dream.|Just a song at|twi- light, _|
w: Love will be found the sweet- est|song of|all.|||
 E,3/2 F,/ G,2 C,2 | F,6 | E,3/2!<(! E,/ E,2 A,,2!<)! |!mf! D,2 D,4 |"^dim." G,3/2 G,/ G,2 G,2 | %20
w: when the lights are|low,|And the flick- 'ring|sha- dows|soft- ly come and|
w: |||||
 (C,2 D,2 E,2) | F,3/2 F,/ F,2 F,2 | G,2 (G,2 C,2) |!<(! E,3/2 F,/ G,2 C,2!<)! | F,6 | %25
w: go; _ _|Tho' the heart be|wea- ry, _|sad the day and|long,|
w: |||||
!f! F,3/2 G,/ A,2 F,2 |!>(! B,,4!>)! B,,2 |!<(! C,2 C,2!<)! B,,2 | A,,4 A,,2 | %29
w: Still to us at|twi- light|comes love's old|song, Comes|
w: ||||
 B,,2 C,2!<(! !fermata!C,2!<)! |!p! [F,,F,]6 |] %31
w: love's old, sweet|song.|
w: ||

